frontend/public/svg/e-commerce/sale.svg

<svg width="155" height="137" viewBox="0 0 155 137" fill="none" xmlns="http://www.w3.org/2000/svg">
<path d="M88.0171 135.422C59.4219 135.06 38.8739 134.857 18.3285 134.488C14.7397 134.412 11.1682 133.967 7.67027 133.161C2.44189 131.966 0.253662 129.168 0.253662 123.827C0.265476 108.783 0.371148 93.7409 0.570675 78.6983C0.732132 67.8129 1.14103 56.9312 1.4797 46.0484C1.59587 42.3204 3.19209 40.5778 6.97193 40.1833C9.3039 39.9405 11.8945 40.5719 13.9541 39.7593C16.0005 38.9527 17.4116 36.6688 19.3012 35.3095C33.8063 24.8737 49.1226 15.7373 64.769 7.13665C66.6349 6.11082 68.51 5.08817 70.2926 3.92645C76.3356 -0.0115765 82.8064 -0.641021 89.6008 1.38378C91.2141 1.86182 92.7663 2.52556 94.226 3.36145C103.171 8.52494 111.702 14.3737 119.742 20.8554C122.715 23.2477 125.697 25.6468 128.486 28.2446C131.591 31.1391 134.589 34.1679 137.417 37.3321C137.928 37.9856 138.593 38.5013 139.354 38.8319C140.115 39.1625 140.946 39.2977 141.772 39.2251C143.899 39.1136 146.038 39.151 148.17 39.2251C151.13 39.3262 152.444 40.3676 153.075 43.2942C153.38 44.9484 153.563 46.6231 153.62 48.3043C154.066 55.3546 154.904 62.4155 154.812 69.459C154.572 87.6396 153.967 105.82 153.398 123.993C153.17 131.287 150.03 134.235 142.613 134.385C121.736 134.807 100.857 135.18 88.0171 135.422ZM7.91443 46.6752V126.753C9.27738 127.083 10.6604 127.324 12.0546 127.475C17.8875 127.714 23.7243 127.993 29.5605 128.009C49.4416 128.061 69.3239 128.152 89.2031 127.951C105.147 127.789 121.087 127.253 137.028 126.808C139.559 126.737 142.082 126.27 145.006 125.941C145.642 99.1622 148.24 72.6705 146.537 45.8475L7.91443 46.6752ZM72.0182 11.7579C61.3856 16.3641 27.6919 36.9612 25.5673 40.2429L127.168 39.2834L127.378 38.5018C115.958 28.0004 103.931 18.2984 90.4481 10.2924C88.2041 17.0966 86.7116 18.5322 81.9978 18.6687C76.7064 18.8249 74.125 17.0697 72.0182 11.7586V11.7579ZM82.6213 10.6318C82.6351 8.87936 81.6913 7.82712 80.0996 7.82121C78.6288 7.81531 77.8097 8.74015 77.7933 10.4164C77.7782 11.9345 78.8743 12.9473 80.567 13.0004C82.2327 13.0529 82.5708 11.9714 82.6213 10.6324V10.6318Z" fill="black"/>
<path d="M75.1915 91.8572L60.8061 92.7905C60.6912 94.0323 60.6093 95.1087 60.4885 96.1812C60.1183 99.5173 59.8912 102.88 59.3005 106.177C58.9191 108.306 57.6597 109.11 56.0687 108.873C54.2244 108.599 53.7098 107.125 53.7184 105.666C53.732 102.756 53.9088 99.8494 54.248 96.9596C55.2752 88.2854 56.4041 79.6237 57.514 70.9594C57.7059 69.5089 58.2343 68.124 59.057 66.9144C59.8797 65.7049 60.9739 64.7048 62.2521 63.9936C63.5302 63.2824 64.9571 62.8798 66.4182 62.8183C67.8799 62.7569 69.3357 63.038 70.6687 63.6394C74.6382 65.445 77.1999 68.6485 79.0508 72.4795C81.428 77.402 82.3272 82.7092 82.807 88.0747C83.2251 92.7584 83.3767 97.4669 83.6071 102.166C83.7922 105.937 82.1763 108.262 79.4242 108.291C76.6873 108.319 75.1292 106.039 75.1817 102.221C75.2296 98.8958 75.1915 95.5668 75.1915 91.8572ZM74.929 84.7471C74.8791 83.9004 74.7833 83.0564 74.6415 82.2196C74.2142 80.3759 73.9615 78.4364 73.1818 76.745C72.2964 74.5955 71.054 72.6114 69.5063 70.8761C66.7864 68.1096 63.1913 69.0528 62.4253 72.8549C61.5806 77.0502 61.5209 81.4037 61.0825 86.0729L74.929 84.7471Z" fill="black"/>
<path d="M36.4671 65.7781C38.0606 66.1954 39.6203 66.733 41.133 67.3854C42.8395 68.2622 43.1893 69.9733 42.8565 71.7592C42.4982 73.6836 40.7562 74.4961 39.4396 73.1375C38.8875 72.5055 38.166 72.0454 37.3605 71.8104C36.555 71.5748 35.6992 71.5754 34.8938 71.8111C32.5599 72.3361 30.3218 73.1808 28.933 75.2844C25.5758 80.371 27.6505 84.6044 32.7647 85.3822C34.7671 85.6434 36.7476 86.0516 38.6901 86.6036C41.0639 87.2508 43.3631 88.1447 45.5501 89.2716C50.153 91.8497 51.8326 96.4677 50.0021 101.375C47.7049 107.529 41.6128 113.414 32.8132 111.653C30.1817 111.14 27.6088 110.362 25.1341 109.33C23.6348 108.575 22.3015 107.529 21.2125 106.252C20.1367 105.114 19.8532 103.381 20.864 102.221C21.8121 101.336 23.0423 100.813 24.3379 100.744C25.4898 100.651 26.7054 101.287 27.8874 101.622C30.2568 102.295 32.5914 103.124 34.9949 103.629C36.8241 104.015 38.7303 103.763 40.3964 102.915C42.0626 102.067 43.3884 100.675 44.1534 98.969C45.1727 96.7611 44.9325 95.2128 42.7791 94.1292C40.3429 93.016 37.8291 92.0814 35.2574 91.3319C34.0951 90.9459 32.8382 90.8547 31.6417 90.5567C26.937 89.3871 23.3567 86.8583 22.5186 81.8202C21.6102 76.3726 23.4722 71.8268 28.0975 68.6705C30.6018 67.0218 33.4794 66.0274 36.4671 65.7781Z" fill="black"/>
<path d="M125.392 69.3399C125.858 73.9835 126.29 78.289 126.752 82.89C128.393 82.89 129.922 82.8138 131.441 82.9123C132.959 83.0107 134.378 83.377 134.607 85.2692C134.729 86.0023 134.579 86.7551 134.185 87.3852C133.79 88.0146 133.179 88.4787 132.465 88.688C130.927 89.2446 129.249 89.4172 127.156 89.8583C127.474 94.2105 127.796 98.6007 128.14 103.284C131.057 103.118 133.612 102.89 136.169 102.857C137.486 102.839 138.962 102.858 140.079 103.425C141.089 104.029 141.821 105.007 142.114 106.147C142.43 107.568 141.423 108.7 140.052 109.241C139.316 109.512 138.543 109.671 137.76 109.713C133.953 109.98 130.151 110.282 126.339 110.41C122.896 110.526 121.492 108.951 121.386 105.532C121.036 94.2177 120.611 82.9057 120.226 71.5931C120.119 70.0277 120.11 68.4577 120.199 66.8917C120.396 64.7222 121.479 63.6368 123.662 63.5049C127.691 63.2614 131.73 63.0597 135.764 63.0643C138.914 63.0682 140.555 64.2615 140.641 66.1245C140.731 68.1066 138.968 69.3871 135.69 69.5033C133.677 69.5748 131.656 69.3884 129.638 69.3458C128.328 69.3149 127.011 69.3399 125.392 69.3399Z" fill="black"/>
<path d="M99.7407 103.16C103.514 103.16 106.977 103.116 110.439 103.181C111.893 103.166 113.343 103.332 114.755 103.677C115.413 103.838 115.994 104.222 116.402 104.762C116.81 105.303 117.019 105.968 116.994 106.644C116.97 107.321 116.712 107.968 116.265 108.477C115.819 108.986 115.211 109.326 114.543 109.438C113.224 109.697 111.883 109.822 110.539 109.812C106.277 109.789 102.016 109.699 97.7546 109.594C93.6295 109.493 92.1232 108.011 91.9427 103.885C91.6802 97.8375 91.5187 91.7841 91.1781 85.7412C90.8821 80.4859 90.3937 75.2398 89.9967 69.9923C89.912 68.8766 89.6363 67.7129 89.8562 66.6562C90.0328 65.809 90.7383 64.5443 91.3658 64.4432C91.8882 64.3953 92.4146 64.4625 92.9082 64.64C93.4017 64.8174 93.8507 65.1008 94.2235 65.4703C94.9441 66.4665 95.3872 67.6367 95.506 68.8602C96.4629 75.3999 97.3555 81.9495 98.1825 88.5083C98.7647 93.165 99.1821 97.8407 99.7407 103.16Z" fill="black"/>
</svg>

<svg xmlns="http://www.w3.org/2000/svg" width="155" height="137" fill="none" viewBox="0 0 155 137"><path fill="#000" d="M88.017 135.422c-28.595-.362-49.143-.565-69.688-.934a52.4 52.4 0 0 1-10.659-1.327c-5.228-1.195-7.416-3.993-7.416-9.334Q.27 101.262.57 78.698c.161-10.885.57-21.767.909-32.65.116-3.728 1.712-5.47 5.492-5.865 2.332-.242 4.923.389 6.982-.424 2.046-.806 3.458-3.09 5.347-4.45C33.806 24.874 49.123 15.738 64.77 7.137c1.866-1.026 3.741-2.049 5.524-3.21C76.336-.013 82.806-.642 89.6 1.383a21.7 21.7 0 0 1 4.625 1.977 200 200 0 0 1 25.516 17.494c2.973 2.393 5.955 4.792 8.744 7.39a140 140 0 0 1 8.931 9.087 4.97 4.97 0 0 0 4.355 1.893c2.127-.111 4.266-.074 6.398 0 2.96.101 4.274 1.143 4.905 4.07.305 1.653.488 3.328.545 5.01.446 7.05 1.284 14.11 1.192 21.154-.24 18.18-.845 36.361-1.414 54.534-.228 7.294-3.368 10.242-10.785 10.392-20.877.422-41.756.795-54.596 1.037M7.914 46.675v80.078a32 32 0 0 0 4.14.722c5.833.239 11.67.518 17.507.534 19.88.052 39.763.143 59.642-.058 15.944-.162 31.884-.698 47.825-1.143 2.531-.071 5.054-.538 7.978-.867.636-26.779 3.234-53.27 1.531-80.093zm64.104-34.917c-10.632 4.606-44.326 25.203-46.45 28.485l101.6-.96.21-.781c-11.42-10.502-23.447-20.204-36.93-28.21-2.244 6.805-3.736 8.24-8.45 8.377-5.292.156-7.873-1.6-9.98-6.91zm10.603-1.126c.014-1.753-.93-2.805-2.521-2.81-1.471-.007-2.29.918-2.307 2.594-.015 1.518 1.081 2.531 2.774 2.584 1.666.053 2.004-1.029 2.054-2.368"/><path fill="#000" d="m75.192 91.857-14.386.933c-.115 1.242-.197 2.319-.317 3.391-.37 3.336-.598 6.699-1.188 9.996-.382 2.129-1.641 2.933-3.232 2.696-1.845-.274-2.36-1.748-2.35-3.207a78 78 0 0 1 .529-8.706c1.027-8.675 2.156-17.336 3.266-26a9.38 9.38 0 0 1 13.155-7.32c3.97 1.805 6.53 5.008 8.382 8.84 2.377 4.922 3.276 10.23 3.756 15.595.418 4.683.57 9.392.8 14.091.185 3.771-1.43 6.096-4.183 6.125-2.737.028-4.295-2.252-4.242-6.07.048-3.325.01-6.654.01-10.364m-.263-7.11q-.075-1.271-.288-2.527c-.427-1.844-.68-3.784-1.46-5.475a20.6 20.6 0 0 0-3.675-5.869c-2.72-2.766-6.315-1.823-7.08 1.979-.845 4.195-.905 8.549-1.343 13.218zM36.467 65.778c1.594.417 3.153.955 4.666 1.607 1.706.877 2.056 2.588 1.723 4.374-.358 1.925-2.1 2.737-3.416 1.379a4.39 4.39 0 0 0-4.546-1.327c-2.334.525-4.572 1.37-5.961 3.473-3.357 5.087-1.282 9.32 3.832 10.098 2.002.261 3.983.67 5.925 1.222a35 35 0 0 1 6.86 2.668c4.603 2.578 6.283 7.196 4.452 12.103-2.297 6.154-8.39 12.039-17.189 10.278a39.7 39.7 0 0 1-7.679-2.323 12.6 12.6 0 0 1-3.922-3.078c-1.075-1.138-1.359-2.871-.348-4.031a5.52 5.52 0 0 1 3.474-1.477c1.152-.093 2.367.543 3.55.878 2.369.673 4.703 1.502 7.107 2.007a8.18 8.18 0 0 0 9.158-4.66c1.02-2.208.78-3.756-1.374-4.84a55.4 55.4 0 0 0-7.522-2.797c-1.162-.386-2.419-.477-3.615-.775-4.705-1.17-8.285-3.699-9.123-8.737-.909-5.447.953-9.993 5.579-13.15a17.9 17.9 0 0 1 8.37-2.892m88.924 3.562 1.36 13.55c1.641 0 3.17-.076 4.689.022 1.518.099 2.937.465 3.166 2.357a3.04 3.04 0 0 1-2.142 3.419c-1.538.557-3.216.73-5.309 1.17l.984 13.426c2.917-.166 5.472-.394 8.029-.427 1.317-.018 2.793.001 3.91.568a4.47 4.47 0 0 1 2.035 2.722c.316 1.421-.691 2.553-2.062 3.094a7.9 7.9 0 0 1-2.292.472c-3.807.267-7.609.569-11.421.697-3.443.116-4.847-1.459-4.953-4.878-.35-11.314-.775-22.626-1.16-33.939a38 38 0 0 1-.027-4.701c.197-2.17 1.28-3.255 3.463-3.387 4.029-.244 8.068-.445 12.102-.44 3.15.003 4.791 1.197 4.877 3.06.09 1.982-1.673 3.262-4.951 3.378-2.013.072-4.034-.115-6.052-.157-1.31-.031-2.627-.006-4.246-.006M99.74 103.16c3.774 0 7.237-.044 10.699.021a17.4 17.4 0 0 1 4.316.496 2.94 2.94 0 0 1 2.239 2.967 2.94 2.94 0 0 1-.729 1.833 2.94 2.94 0 0 1-1.722.961c-1.319.259-2.66.384-4.004.374a665 665 0 0 1-12.784-.218c-4.126-.101-5.632-1.583-5.812-5.709-.263-6.047-.424-12.1-.765-18.144-.296-5.255-.784-10.501-1.181-15.749-.085-1.115-.36-2.28-.14-3.336.176-.847.881-2.112 1.509-2.213a3.59 3.59 0 0 1 2.858 1.027 6.9 6.9 0 0 1 1.282 3.39q1.436 9.81 2.677 19.648c.582 4.657 1 9.333 1.558 14.652"/></svg>
